X: 2013
T: Hector the Hero
C:J. S. Skinner
B: steve tunes
M:3/4
L:1/4
Q: 1/4=150
K:D
V:1 
D/E/ |: "D" F3/2 E/2 D | "G"B2 A/2F/2 | "D"A2-A/2B/2 |"D"A2D/2E/2 | "Bm"F2E/2D/2 | "G"B2A/2F/2 |
 "Em"E2-E/2F/2 |"A"E2F/2A/2 | "Bm"F3/2E/2D | "G"B2A/2F/2 | "D"A2D |"G"d2B |
 "D"A2D/2F/2 | "A"E2D |1 "D"D3- | "D"D z D/E/:|2"D"D3- | "D"D F A||
|:"G"B2G/2B/2 | "G"d2c/2B/2 | "D"A2-A/2B/2 |"D"A2F/2A/2 | "Bm"B2A/2F/2 | "Bm"A2D/2F/2 |
 "Em"E2-E/2F/2 |"A"E2F/2A/2 | "Bm"B2G/2B/2 | "G"d2c/2B/2 |[1 "D"A2G/2F/2 | "G"d2G |
 "D"F2D/2F/2 | "A"E2D | "D"D3- | "D"D3 :|2 "D"A2D | "G"d2B |
 "D"A2D/2F/2 | "A"E2D | "D"D3- | "D"D ||
% abcbook-tune_id 629fde475d33089f5757665a


% abcbook-boost 0
% abcbook-tablature 
% abcbook-transpose 
% abcbook-lastupdated 1654680680843
% abcbook-soundfonts 
% abcbook-repeats 3
% Titles One title
% Transcriptions Only 1 transcription
% Movement Has lots of stepwise movement
% Movement Has some stepwise movement
% Mode major
% Key D
% Time_signature 3/4
% Has_accompaniment_chords Has chords

